X:1
T:G\"ardebyl{\aa}ten
R:g{\aa}ngl{\aa}t
A:Dalarna
O:Sweden
Z:id:hn-ganglat-1
M:C|
K:D
FG|ABAF ABAF|A2fe d2c2|BcBG BcBG|B2gf e2d2|
c3d c2B2|A2g2 f2e2|1 dcde fefg|a6:|2 d2fd Acec|d6||
|:fg|a4 a2^ga|b2a2 g2f2|g4 B3d|g2f2 e2d2|
c3d c2B2|A2g2 f2e2|1 dcde fefg|a6:|2 d2fd Acec|d6||

